X:1
T:Tablatura
T:Efeito colateral: espaço abaixo da tablatura
M:none % definir por voz
L:1/8
K:G
%%staves [1 r 2]
%
% PARTITURA
%
V:1 up clef=treble-8 name="Partitura"
[M:2/4]\
[G,Bdf]efd | [CGde]2cB | [A,Gce]dec | [B,Ad]2GF |
s: "G7M"   | "Cadd9"   | "Am7"      | "Bm7"     |
%
% RITMO para tablatura pode ser indicado por uma voz como esta:
%
V:r stafflines=0 clef=none staffscale=.5 up name="(ritmo)"
[K:none][M:(2/4)]\
BBBB | B2BB | BBBB | B2BB |
%
% TABLATURA
%
% Figuras esparsas podem indicar o ritmo, como em tablaturas de alaúde
V:2 staffscale=1.5 stafflines=6 clef=none name="Tablatura\n" dyn=up
[M:none][K:none]\
%%postscript /dlw{.46 SLW}! % linhas finas na tablatura
!E! !B! !G! !D! !A! !E! y \
!colcheia! !c! !bend! !d! !e! !&! !&! !d! x \
!a! x \
!c! x \
!&! !d! x |\
!seminima! !a! !d! !a! !&! !d! x2 \
!colcheia! !&! !b! x \
!&! !a! x |\
!a! !b! !a! !&! !a! x \
!&! !d! x \
!a! x \
!&! !b! x |\
!seminima! !&! !d! !c! !&! !c! x2 \
!colcheia! !&! !&! !a! x \
!&! !&! !&! !e! x |
%%postscript /dlw{.7 SLW}! % restaura espessura de linha default


